svg/s/BM.svg

<svg width="16" height="12" viewBox="0 0 16 12" fill="none" xmlns="http://www.w3.org/2000/svg">
<g clip-path="url(#clip0_270_54959)">
<rect width="16" height="12" fill="white"/>
<path fill-rule="evenodd" clip-rule="evenodd" d="M0 0V12H16V0H0Z" fill="#AF0100"/>
<mask id="mask0_270_54959" style="mask-type:luminance" maskUnits="userSpaceOnUse" x="0" y="0" width="16" height="12">
<path fill-rule="evenodd" clip-rule="evenodd" d="M0 0V12H16V0H0Z" fill="white"/>
</mask>
<g mask="url(#mask0_270_54959)">
<path fill-rule="evenodd" clip-rule="evenodd" d="M11.0038 6C11.0038 8.94339 11.2824 9.96565 12.9599 9.96565C14.6375 9.96565 15.0965 8.48282 14.9548 6H11.0038Z" fill="#F7FCFF"/>
<path fill-rule="evenodd" clip-rule="evenodd" d="M13.05 7.70001C13.5195 7.70001 13.9 7.2523 13.9 6.70001C13.9 6.14773 13.5195 5.70001 13.05 5.70001C12.5806 5.70001 12.2 6.14773 12.2 6.70001C12.2 7.2523 12.5806 7.70001 13.05 7.70001Z" fill="#AF0100"/>
<path fill-rule="evenodd" clip-rule="evenodd" d="M11.3967 9.15698C11.6955 9.82365 12.2183 10.157 12.9651 10.157C13.7068 10.157 14.2313 9.8281 14.5385 9.17034L11.3967 9.15698Z" fill="#5EAA22"/>
<path d="M11.8096 7.51535L11.5305 6.81921C12.0428 6.61384 12.5366 6.50983 13.0111 6.50983C13.4856 6.50983 13.9795 6.61384 14.4917 6.81921L14.2126 7.51535C13.7855 7.34411 13.3853 7.25983 13.0111 7.25983C12.6369 7.25983 12.2367 7.34411 11.8096 7.51535Z" fill="#82B2CB"/>
<path fill-rule="evenodd" clip-rule="evenodd" d="M12.5 8C12.7761 8 13 7.77614 13 7.5C13 7.22386 12.7761 7 12.5 7C12.2239 7 12 7.22386 12 7.5C12 7.77614 12.2239 8 12.5 8Z" fill="#FECA00"/>
<path fill-rule="evenodd" clip-rule="evenodd" d="M12.8 8.80005C13.0761 8.80005 13.3 8.57619 13.3 8.30005C13.3 8.02391 13.0761 7.80005 12.8 7.80005C12.5238 7.80005 12.3 8.02391 12.3 8.30005C12.3 8.57619 12.5238 8.80005 12.8 8.80005Z" fill="#8A4E22"/>
<path fill-rule="evenodd" clip-rule="evenodd" d="M12 8.40002C12.2761 8.40002 12.5 8.17617 12.5 7.90002C12.5 7.62388 12.2761 7.40002 12 7.40002C11.7239 7.40002 11.5 7.62388 11.5 7.90002C11.5 8.17617 11.7239 8.40002 12 8.40002Z" fill="#AF0100"/>
<path fill-rule="evenodd" clip-rule="evenodd" d="M13.7 8.40002C13.9762 8.40002 14.2 8.17617 14.2 7.90002C14.2 7.62388 13.9762 7.40002 13.7 7.40002C13.4239 7.40002 13.2 7.62388 13.2 7.90002C13.2 8.17617 13.4239 8.40002 13.7 8.40002Z" fill="#AF0100"/>
<path fill-rule="evenodd" clip-rule="evenodd" d="M13.35 9.5C13.5433 9.5 13.7 9.27614 13.7 9C13.7 8.72386 13.5433 8.5 13.35 8.5C13.1567 8.5 13 8.72386 13 9C13 9.27614 13.1567 9.5 13.35 9.5Z" fill="#AF0100"/>
<path fill-rule="evenodd" clip-rule="evenodd" d="M12.15 9.5C12.3433 9.5 12.5 9.27614 12.5 9C12.5 8.72386 12.3433 8.5 12.15 8.5C11.9567 8.5 11.8 8.72386 11.8 9C11.8 9.27614 11.9567 9.5 12.15 9.5Z" fill="#AF0100"/>
</g>
<g clip-path="url(#clip1_270_54959)">
<rect width="9" height="7" fill="#2E42A5"/>
<path d="M-1.00214 6.49993L0.978339 7.36853L9.04494 0.944391L10.0896 -0.346375L7.97176 -0.636686L4.68159 2.13166L2.03334 3.99688L-1.00214 6.49993Z" fill="#F7FCFF"/>
<path d="M-0.731018 7.10849L0.277943 7.61255L9.71445 -0.466309H8.29775L-0.731018 7.10849Z" fill="#F50100"/>
<path d="M10.0021 6.49993L8.02166 7.36853L-0.0449371 0.944391L-1.08959 -0.346375L1.02824 -0.636686L4.31841 2.13166L6.96666 3.99688L10.0021 6.49993Z" fill="#F7FCFF"/>
<path d="M9.93457 6.93667L8.92561 7.44073L4.90745 3.98176L3.71615 3.59529L-1.1901 -0.341973H0.226597L5.13009 3.50184L6.43256 3.96525L9.93457 6.93667Z" fill="#F50100"/>
<path fill-rule="evenodd" clip-rule="evenodd" d="M4.99226 0H3.99226V3H0V4H3.99226V7H4.99226V4H9V3H4.99226V0Z" fill="#F50100"/>
<path fill-rule="evenodd" clip-rule="evenodd" d="M3.24226 -0.75H5.74226V2.25H9.75V4.75H5.74226V7.75H3.24226V4.75H-0.75V2.25H3.24226V-0.75ZM3.99226 3H0V4H3.99226V7H4.99226V4H9V3H4.99226V0H3.99226V3Z" fill="#F7FCFF"/>
</g>
</g>
<defs>
<clipPath id="clip0_270_54959">
<rect width="16" height="12" fill="white"/>
</clipPath>
<clipPath id="clip1_270_54959">
<rect width="9" height="7" fill="white"/>
</clipPath>
</defs>
</svg>

<svg width="16" height="12" fill="none" xmlns="http://www.w3.org/2000/svg">
  <mask id="a" maskUnits="userSpaceOnUse" x="0" y="0" width="16" height="12">
    <path fill="#fff" d="M0 0h16v12H0z"/>
  </mask>
  <g mask="url(#a)">
    <path fill-rule="evenodd" clip-rule="evenodd" d="M0 0v12h16V0H0z" fill="#AF0100"/>
    <mask id="b" maskUnits="userSpaceOnUse" x="0" y="0" width="16" height="12">
      <path fill-rule="evenodd" clip-rule="evenodd" d="M0 0v12h16V0H0z" fill="#fff"/>
    </mask>
    <g mask="url(#b)">
      <path fill-rule="evenodd" clip-rule="evenodd" d="M11.004 6c0 2.943.278 3.966 1.956 3.966 1.677 0 2.136-1.483 1.995-3.966h-3.951z" fill="#F7FCFF"/>
      <path fill-rule="evenodd" clip-rule="evenodd" d="M13.05 7.7c.47 0 .85-.448.85-1s-.38-1-.85-1-.85.448-.85 1 .38 1 .85 1z" fill="#AF0100"/>
      <path fill-rule="evenodd" clip-rule="evenodd" d="M11.397 9.157c.298.667.821 1 1.568 1 .742 0 1.266-.329 1.574-.987l-3.142-.013z" fill="#5EAA22"/>
      <path d="M11.81 7.515l-.28-.696a3.976 3.976 0 011.481-.31c.475 0 .969.105 1.48.31l-.278.696a3.234 3.234 0 00-1.202-.255c-.374 0-.774.084-1.201.255z" fill="#82B2CB"/>
      <path fill-rule="evenodd" clip-rule="evenodd" d="M12.5 8a.5.5 0 100-1 .5.5 0 000 1z" fill="#FECA00"/>
      <path fill-rule="evenodd" clip-rule="evenodd" d="M12.8 8.8a.5.5 0 100-1 .5.5 0 000 1z" fill="#8A4E22"/>
      <path fill-rule="evenodd" clip-rule="evenodd" d="M12 8.4a.5.5 0 100-1 .5.5 0 000 1zm1.7 0a.5.5 0 100-1 .5.5 0 000 1zm-.35 1.1c.193 0 .35-.224.35-.5s-.157-.5-.35-.5c-.193 0-.35.224-.35.5s.157.5.35.5zm-1.2 0c.193 0 .35-.224.35-.5s-.157-.5-.35-.5c-.193 0-.35.224-.35.5s.157.5.35.5z" fill="#AF0100"/>
      <path fill="#2E42A5" d="M0 0h9v7H0z"/>
      <mask id="c" maskUnits="userSpaceOnUse" x="0" y="0" width="9" height="7">
        <path fill="#fff" d="M0 0h9v7H0z"/>
      </mask>
      <g mask="url(#c)">
        <path d="M-1.002 6.5l1.98.868L9.045.944l1.045-1.29-2.118-.29-3.29 2.768-2.649 1.865L-1.002 6.5z" fill="#fff"/>
        <path d="M-.731 7.108l1.009.505 9.436-8.08H8.298L-.731 7.109z" fill="#F50100"/>
        <path d="M10.002 6.5l-1.98.868L-.045.944-1.09-.346l2.118-.29 3.29 2.768 2.649 1.865L10.002 6.5z" fill="#fff"/>
        <path d="M9.935 6.937l-1.01.504-4.018-3.46-1.19-.386L-1.19-.342H.227L5.13 3.502l1.303.463 3.502 2.972z" fill="#F50100"/>
        <path d="M3.5-.5V-1H3v.5h.5zm0 2.532v.5H4v-.5h-.5zm-3.992 0v-.5h-.5v.5h.5zm0 3h-.5v.5h.5v-.5zm3.992 0H4v-.5h-.5v.5zm0 2.468H3V8h.5v-.5zm2 0V8H6v-.5h-.5zm0-2.468v-.5H5v.5h.5zm4.008 0v.5h.5v-.5h-.5zm0-3h.5v-.5h-.5v.5zm-4.008 0H5v.5h.5v-.5zM5.5-.5H6V-1h-.5v.5zm-2 3.532H4v-.5h-.5v.5zm-2.992 0v-.5h-.5v.5h.5zm0 1h-.5v.5h.5v-.5zm2.992 0v.5H4v-.5h-.5zm2-1v-.5H5v.5h.5zm0 1H5v.5h.5v-.5zm3.008-1h.5v-.5h-.5v.5zm0 1v.5h.5v-.5h-.5zM3.5 0H4v-1h-.5v1zM4 0v-.5H3V0h1zm0 2.032V0H3v2.032h1zm-3.992.5H3.5v-1H.008v1zm-.5 0h.5v-1h-.5v1zm.5 0v-.5h-1v.5h1zm0 2v-2h-1v2h1zm0 .5v-.5h-1v.5h1zm0-.5h-.5v1h.5v-1zm3.492 0H.008v1H3.5v-1zM4 7V5.032H3V7h1zm0 .5V7H3v.5h1zM4 7h-.5v1H4V7zm1 0H4v1h1V7zm.5 0H5v1h.5V7zM5 7v.5h1V7H5zm0-1.968V7h1V5.032H5zm4.008-.5H5.5v1h3.508v-1zm.5 0h-.5v1h.5v-1zm-.5 0v.5h1v-.5h-1zm0-2v2h1v-2h-1zm0-.5v.5h1v-.5h-1zm0 .5h.5v-1h-.5v1zm-3.508 0h3.508v-1H5.5v1zM5 0v2.032h1V0H5zm0-.5V0h1v-.5H5zM5 0h.5v-1H5v1zM4 0h1v-1H4v1zm-.5 2.532H.508v1H3.5v-1zm-3.492.5v1h1v-1h-1zm.5 1.5H3.5v-1H.508v1zM4 4.032v-1H3v1h1zm1-1v1h1v-1H5zm3.508-.5H5.5v1h3.008v-1zm.5 1.5v-1h-1v1h1zm-3.508.5h3.008v-1H5.5v1z" fill="#fff"/>
        <path fill-rule="evenodd" clip-rule="evenodd" d="M5 0H4v2.532H.008v2H4V7h1V4.532h4.008v-2H5V0z" fill="#F50100"/>
      </g>
    </g>
  </g>
</svg>
